!!!COM: Beethoven, Ludwig van
!!!CDT: 1770///-1827///
!!!OTL: Six Variations on a Swiss Song
!!!OMV: Variation 3
!!!OMD: Poco sostenuto e doloroso
!!!OPS: WO 64
!!!ODT: ~1791///
!!!AGN: Variations
**kern	**dynam	**kern	**dynam
*Ipiano	*Ipiano	*Ipiano	*Ipiano
*>[A,B,B]	*>[A,B,B]	*>[A,B,B]	*>[A,B,B]
*>norep[A,B]	*>norep[A,B]	*>norep[A,B]	*>norep[A,B]
*>A	*>A	*>A	*>A
*clefF4	*clefF4	*clefG2	*clefG2
*k[b-e-a-d-]	*k[b-e-a-d-]	*k[b-e-a-d-]	*k[b-e-a-d-]
*met(C)	*met(C)	*met(C)	*met(C)
*M4/4	*M4/4	*M4/4	*M4/4
*MM112	*MM112	*MM112	*MM112
4r	.	(4c/	p
=38	=38	=38	=38
*	*	*^	*
(4F\	mp	4f/	8f\L	.
.	.	.	8c\	.
4E\	.	4g/	8g\	.
.	.	.	8c\J	.
4F\	.	4a-/	8a-\L	.
.	.	.	8c\	.
(4D-\)	.	4f/	8f\)	.
.	.	.	8c\J	.
=39	=39	=39	=39	=39
(2C'/)	.	&(2cc/&)	(8a-\L	.
.	.	.	8c\	.
.	.	.	8f\	.
.	.	.	8c\J)	.
2CC'/)	.	2g/	(8e\L	.
.	.	.	8c\	.
.	.	.	8B-\	.
.	.	.	8c\J)	.
=40	=40	=40	=40	=40
2FF/	.	2.f/	(8A-\L	.
.	.	.	8c\	.
.	.	.	8A-\	.
.	.	.	8F\J)	.
8FF/L	.	.	4r	.
8F/J	.	.	.	.
*	*	*v	*v	*
=41!|:	=41!|:	=41!|:	=41!|:
*>B	*>B	*>B	*>B
*	*	*^	*
4r	.	4cc/	(8a-\L	p
.	.	.	8f\J	.
=42	=42	=42	=42	=42
2r	.	4cc/	8a\L	.
.	.	.	8f\	.
.	.	4dd-/	8b-\	.
.	.	.	8f\J	.
4r	.	4ee-/	8cc\L	.
.	.	.	8f\	.
(4F\	.	&(4cc/&)	8a\	.
.	.	.	8f\J)	.
=43	=43	=43	=43	=43
(2d-'\)	.	&(2ff'/&)	(8b-\L	.
.	.	.	8f\	.
.	.	.	8b-\	.
.	.	.	8f\J)	.
2B-'\)	.	2dd-'/	(8b-\L	.
.	.	.	8f\	.
.	.	.	8b-\	.
.	.	.	8f\J)	.
=44	=44	=44	=44	=44
2.F\	.	2.cc/	(8a\L	.
.	.	.	8f\	.
.	.	.	8a\	.
.	.	.	8f\J	.
.	.	.	8a\L	.
.	.	.	8f\)	.
(4e-\	.	(4cc/	8cc\	.
.	.	.	8f\J	.
=45	=45	=45	=45	=45
4d-\	.	4ff/	8ff\L	.
.	.	.	8f\	.
4c\	.	4ee-/	8ee-\	.
.	.	.	8f\J	.
4B-\	.	4dd-/	8dd-\L	.
.	.	.	8f\	.
4e-\	.	(4cc/)	8a\	.
.	.	.	8f\J	.
=46	=46	=46	=46	=46
4d-\	.	(4ff/)	8b-\L	.
.	.	.	8f\	.
4c\	.	4ee-/	8a\	.
.	.	.	8f\J	.
4B-\	.	4dd-/	8b-\L	.
.	.	.	8f\)	.
4G\	.	(4e/	8e\	pp
.	.	.	8c\J	.
=47	=47	=47	=47	=47
4A-\	.	4f/	8f\L	.
.	.	.	8c\	.
4E\	.	4g/	8g\	.
.	.	.	8c\J	.
4F\	.	4a-/	8a-\L	.
.	.	.	8c\	.
4D-\	.	4b-/	(8b-\)	.
.	.	.	8f\J	.
=48	=48	=48	=48	=48
(2C'/)	.	2cc'/)	8a-\L	.
.	.	.	8c\	.
.	.	.	8f\	.
.	.	.	8c\J	.
2CC'/)	.	2g'/	(8e\L	.
.	.	.	8c\	.
.	.	.	8B-\	.
.	.	.	8c\J)	.
=49	=49	=49	=49	=49
2FF/	.	2.f/	(8A-\L	.
.	.	.	8c\	.
.	.	.	8A-\	.
.	.	.	8F\J)	.
4FF/	.	.	4r	.
*	*	*v	*v	*
=50:|!	=50:|!	=50:|!	=50:|!
*-	*-	*-	*-
!!!ENC: Craig Stuart Sapp
!!!END: 2004/06/07/
